static/assets/images/icons/next.svg

<svg width="256" height="256" viewBox="0 0 256 256" fill="none" xmlns="http://www.w3.org/2000/svg">
<path fill-rule="evenodd" clip-rule="evenodd" d="M60.3559 63.999C58.5821 62.8094 56.5178 62.1236 54.3837 62.0152C52.2497 61.9068 50.1262 62.3797 48.2407 63.3834C46.3551 64.3871 44.7783 65.8837 43.679 67.7132C42.5798 69.5427 41.9994 71.6362 42 73.7696V182.019C41.9998 184.159 42.5842 186.258 43.6902 188.091C44.7963 189.924 46.3821 191.421 48.2769 192.422C50.1718 193.422 52.304 193.887 54.444 193.767C56.584 193.648 58.6508 192.947 60.4219 191.742L118.303 152.357V182.019C118.302 184.159 118.887 186.258 119.993 188.091C121.099 189.924 122.685 191.421 124.58 192.422C126.474 193.422 128.607 193.887 130.747 193.767C132.887 193.648 134.953 192.947 136.725 191.742L216.861 137.213C218.451 136.129 219.751 134.672 220.647 132.97C221.543 131.268 222.007 129.373 222 127.451C221.992 125.528 221.513 123.636 220.604 121.942C219.695 120.247 218.384 118.8 216.785 117.728L136.659 63.999C134.885 62.8094 132.82 62.1236 130.686 62.0152C128.552 61.9068 126.429 62.3797 124.543 63.3834C122.658 64.3871 121.081 65.8837 119.982 67.7132C118.882 69.5427 118.302 71.6362 118.303 73.7696V102.855L60.3559 63.999Z" fill="black"/>
</svg>

<svg xmlns="http://www.w3.org/2000/svg" fill="none" viewBox="0 0 256 256"><path fill="#000" fill-rule="evenodd" d="M60.356 63.999a11.797 11.797 0 0 0-16.677 3.714A11.75 11.75 0 0 0 42 73.77v108.249c0 2.14.584 4.239 1.69 6.072a11.79 11.79 0 0 0 10.754 5.676c2.14-.119 4.207-.82 5.978-2.025l57.881-39.385v29.662a11.74 11.74 0 0 0 1.69 6.072 11.79 11.79 0 0 0 10.754 5.676c2.14-.119 4.206-.82 5.978-2.025l80.136-54.529a11.755 11.755 0 0 0-.076-19.485l-80.126-53.729a11.8 11.8 0 0 0-12.116-.616 11.8 11.8 0 0 0-4.561 4.33 11.74 11.74 0 0 0-1.679 6.057v29.085z" clip-rule="evenodd"/></svg>
